X: 1
T:The Pearl
R:Air
C:Phil Cunningham
M:C
L:1/4
K:D
D/2E/2 | F2 E3/2 D/2| D2 d e| f2 A3/2 F/2 | A2 B c |
d2 c D | B2 A D/2E/2| F2 E3/2 D/2 | B,2 D E |
F2 E3/2 D/2 | D2 d e | f2 A3/2 F/2 | A2 B c |
d2 c D | B2 A (3G/2F/2E/2 | F2 E3/2 D/2 | B,2 ||
 d e | f2 A3/2 F/2 | A2 B c | d2 D3/2 E/2|  F2 E D |
D2 B3/2 A/2 | F2 D3/2 E/2 | F2 E3/2 D/2 | B,2 d e |
f2 A3/2 F/2 | A2 B c | d2 D3/2 E/2 | F2 E D |
D2 B3/2 A/2 | F2 D3/2 E/2 | F2 E3/2 D/2 | B,3 ||
